!!!COM: Leoš [Leo Eugen] Janáček
!!!OTL: [T150_Jan-w44p164-165h40m3-11]
**kern	**dynam	**kern	**dynam	**kern	**dynam	**kern	**dynam	**kern	**dynam	**kern	**dynam	**text	**text	**text	**kern	**dynam	**kern	**dynam	**kern	**dynam	**kern	**dynam	**kern	**dynam	**kern	**dynam	**kern	**dynam
*grp:A	*grp:A	*grp:A	*grp:A	*grp:A	*grp:A	*grp:A	*grp:A	*grp:A	*grp:A	*grp:B	*grp:B	*grp:B	*grp:B	*grp:B	*grp:A	*grp:A	*grp:A	*grp:A	*grp:A	*grp:A	*grp:A	*grp:A	*grp:A	*grp:A	*grp:A	*grp:A	*grp:A	*grp:A
*part10	*part10	*part9	*part9	*part8	*part8	*part7	*part7	*part6	*part6	*part5	*	*part5	*part5	*part5	*part4	*part4	*part3	*	*part3	*part3	*part2	*	*part2	*part2	*part1	*	*part1	*part1
*staff13	*	*staff12	*	*staff11	*	*staff10	*	*staff9	*	*staff8	*	*staff8	*staff8	*staff8	*staff7	*	*staff6	*	*staff5	*	*staff4	*	*staff3	*	*staff2	*	*staff1	*
*I"Contrabass	*	*I"Violoncello	*	*I"Viola	*	*I"Violin II	*	*I"Violin I	*	*I"Revírník	*	*	*	*	*I"Horn in F 1. 2	*	*I"Bassoon 1. 2	*	*I"Bassoon 1. 2	*	*I"Clarinet 1. 2	*	*I"Clarinet 1. 2	*	*I"Oboe 1. 2	*	*I"Oboe 1. 2	*
*I'Cb.	*	*I'Vc.	*	*I'Vla.	*	*I'Vln. II	*	*I'Vln. I	*	*I'Rv.	*	*	*	*	*I'Hn.	*	*I'Bsn.	*	*I'Bsn.	*	*I'Cl.	*	*I'Cl.	*	*I'Ob.	*	*I'Ob.	*
*clefF4	*	*clefF4	*	*clefC3	*	*clefG2	*	*clefG2	*	*clefF4	*	*	*	*	*clefG2	*	*clefF4	*	*clefF4	*	*clefG2	*	*clefG2	*	*clefG2	*	*clefG2	*
*ITrd7c12	*	*	*	*	*	*	*	*	*	*	*	*	*	*	*ITrd4c7	*	*	*	*	*	*ITrd1c2	*	*ITrd1c2	*	*	*	*	*
*k[]	*	*k[]	*	*k[]	*	*k[]	*	*k[]	*	*k[]	*	*	*	*	*k[b-]	*	*k[]	*	*k[]	*	*k[b-e-]	*	*k[b-e-]	*	*k[]	*	*k[]	*
*	*	*	*	*	*	*	*	*	*	*	*	*	*	*	*	*	*	*	*	*	*	*	*	*	*	*	*	*
*M3/4	*	*M3/4	*	*M3/4	*	*M3/4	*	*M3/4	*	*M3/4	*	*	*	*	*M3/4	*	*M3/4	*	*M3/4	*	*M3/4	*	*M3/4	*	*M3/4	*	*M3/4	*
=77	=77	=77	=77	=77	=77	=77	=77	=77	=77	=77	=77	=77	=77	=77	=77	=77	=77	=77	=77	=77	=77	=77	=77	=77	=77	=77	=77	=77
!	!	!	!	!	!	!	!	!	!	!	!	!	!	!	!	!	!	!	!	!	!	!	!	!	!	!	!LO:TX:t=[[quarter]=104]	!
!	!	!	!	!	!	!	!LO:DY:ed=brack	!	!LO:DY:ed=brack	!	!	!	!	!	!	!	!	!LO:DY:ed=brack	!	!LO:DY:ed=brack	!	!LO:DY:ed=brack	!	!LO:DY:ed=brack	!	!LO:DY:ed=brack	!	!LO:DY:ed=brack
4%3ryy	.	4%3ryy	.	4ryy	4ryy	4ryy	4ryy	4ryy	4ryy	4%3r	.	.	.	.	4%3ryy	.	4ryy	4ryy	8ryy	4ryy	4ryy	4ryy	8ryy	4ryy	4ryy	4ryy	8ryy	4ryy
.	.	.	.	.	4ryy	.	.	.	.	.	.	.	.	.	.	.	.	4ryy	8ryy	4ryy	.	.	8ryy	.	.	.	8ryy	.
!	!	!	!	!	!LO:DY:ed=brack	!	!	!	!	!	!	!	!	!	!	!	!	!	!	!	!	!	!	!	!	!	!	!LO:HP:ed=brack
.	.	.	.	4ryy	4ryy	2ryy	4ryy	2ryy	4ryy	.	.	.	.	.	.	.	4ryy	4ryy	4ryy	4ryy	2ryy	4ryy	4ryy	4ryy	2ryy	4ryy	4ryy	4ryy
.	.	.	.	4ryy	.	.	.	.	.	.	.	.	.	.	.	.	4ryy	.	4ryy	.	.	.	8ryy	.	.	.	8ryy	.
.	.	.	.	.	.	.	.	.	.	.	.	.	.	.	.	.	.	.	.	.	.	.	8ryy	4ryy	.	.	8ryy	4ryy
=78	=78	=78	=78	=78	=78	=78	=78	=78	=78	=78	=78	=77	=78	=78	=78	=78	=78	=78	=78	=78	=78	=78	=78	=28	=78	=78	=78	=78
4%3ryy	.	4%3ryy	.	4ryy	.	4ryy	4ryy	4ryy	4ryy	4%3r	.	.	.	.	4%3ryy	.	4ryy	.	8ryy	.	4ryy	4ryy	8ryy	4ryy	4ryy	4ryy	8ryy	4ryy
.	.	.	.	.	.	.	.	.	.	.	.	.	.	.	.	.	.	.	8ryy	.	.	.	8ryy	.	.	.	8ryy	.
.	.	.	.	2ryy	4ryy	4ryy	.	4ryy	.	.	.	.	.	.	.	.	2ryy	4ryy	4ryy	4ryy	4ryy	.	4ryy	4ryy	4ryy	.	4ryy	4ryy
.	.	.	.	.	.	4ryy	.	4ryy	.	.	.	.	.	.	.	.	.	.	8ryy	.	4ryy	.	4ryy	.	4ryy	.	4ryy	.
.	.	.	.	.	.	.	.	.	.	.	.	.	.	.	.	.	.	.	8ryy	4ryy	.	.	.	.	.	.	.	.
=79	=79	=79	=79	=79	=79	=79	=79	=79	=79	=79	=79	=79	=79	=79	=79	=79	=79	=79	=79	=79	=79	=79	=79	=79	=79	=79	=79	=79
!	!	!	!	!	!	!	!	!	!	!	!LO:DY:ed=brack	!	!	!	!	!	!	!	!	!	!	!	!	!	!	!	!	!
4%3ryy	.	4%3ryy	.	2.ryy	.	2.ryy	.	2.ryy	.	4%3r	mf	.	.	.	4%3ryy	.	4ryy	4ryy	8ryy	.	4%3ryy	.	2.ryy	4ryy	4%3ryy	.	2.ryy	4ryy
.	.	.	.	.	.	.	.	.	.	.	.	.	.	.	.	.	.	.	8ryy	.	.	.	.	.	.	.	.	.
.	.	.	.	.	.	.	.	.	.	.	.	.	.	.	.	.	4ryy	.	4ryy	.	.	.	.	.	.	.	.	.
.	.	.	.	.	.	.	.	.	.	.	.	.	.	.	.	.	4ryy	.	4ryy	.	.	.	.	.	.	.	.	.
=80	=80	=80	=80	=80	=80	=80	=80	=80	=80	=80	=80	=80	=80	=80	=80	=80	=80	=80	=80	=80	=80	=80	=80	=80	=80	=80	=80	=80
*	*	*	*	*	*	*	*	*	*	*^	*	*	*	*	*	*	*	*	*	*	*	*	*	*	*	*	*	*
*	*	*	*	*	*	*	*	*	*	*	*	*	*	*	*	*	*	*	*	*grp:B	*grp:B	*	*	*	*	*	*	*	*
!	!	!	!	!	!	!	!	!	!	!	!	!	!	!	!	!	!	!	!	!LO:TX:a:t=a 2	!	!	!	!	!	!	!	!	!
!	!	!	!	!	!	!	!	!	!	!	!	!	!	!	!	!	!	!	!	!LO:TX:t=P:problem: Cross-Measure Beaming still needs to be implemented.	!	!	!	!	!	!	!	!	!
4%3ryy	.	4%3ryy	.	2.ryy	.	2.ryy	.	2.ryy	.	8r	4r	.	.	.	.	4%3ryy	.	4%3ryy	.	8d-X'L	p	4%3ryy	.	2.ryy	.	4%3ryy	.	2.ryy	.
.	.	.	.	.	.	.	.	.	.	\8B-XN	.	.	.	.	The	.	.	.	.	8B-X'	.	.	.	.	.	.	.	.	.
*	*	*	*	*	*	*	*	*	*	*v	*v	*	*	*	*	*	*	*	*	*	*	*	*	*	*	*	*	*	*
.	.	.	.	.	.	.	.	.	.	(8B-X	.	Šak	Das	tongue	.	.	.	.	8E-X'	.	.	.	.	.	.	.	.	.
.	.	.	.	.	4ryy	.	4ryy	.	4ryy	8B-	.	se	käm	will	.	.	.	.	8B-'J	<	.	.	.	4ryy	.	.	.	4ryy
.	.	.	.	.	.	.	.	.	.	8B-	.	ti	dir	come	.	.	.	.	8d-'L	.	.	.	.	.	.	.	.	.
.	.	.	.	.	.	.	.	.	.	8B-	.	to	zu	in	.	.	.	.	8B-'	.	.	.	.	.	.	.	.	.
=81	=81	=81	=81	=81	=81	=81	=81	=81	=81	=81	=81	=81	=81	=81	=81	=81	=81	=81	=81	=81	=81	=81	=81	=81	=81	=81	=81	=81
4%3ryy	.	4%3ryy	.	2.ryy	.	2.ryy	.	2.ryy	.	8d-X	.	zho-	stat-	hand-	4%3ryy	.	4%3ryy	.	8E-X'	.	4%3ryy	.	2.ryy	.	4%3ryy	.	2.ryy	.
.	.	.	.	.	.	.	.	.	.	[8B-X	.	-dí,	-ten,	-y,	.	.	.	.	8B-X'J	.	.	.	.	.	.	.	.	.
.	.	.	.	.	.	.	.	.	.	2B-]	.	.	.	.	.	.	.	.	8d-X'L	.	.	.	.	.	.	.	.	.
.	.	.	.	.	.	.	.	.	.	.	.	.	.	.	.	.	.	.	8B-'	.	.	.	.	.	.	.	.	.
.	.	.	.	.	.	.	.	.	.	.	.	.	.	.	.	.	.	.	8E-'	.	.	.	.	.	.	.	.	.
.	.	.	.	.	4ryy	.	4ryy	.	4ryy	.	.	.	.	.	.	.	.	.	8B-'J	[	.	.	.	4ryy	.	.	.	4ryy
=82	=82	=82	=82	=82	=82	=82	=82	=82	=82	=82	=82	=82	=82	=82	=82	=82	=82	=82	=82	=82	=82	=82	=82	=82	=82	=82	=82	=82
4%3ryy	.	4%3ryy	.	4.ryy	4ryy	8ryy	.	8ryy	.	6E-X	.	rech-	Schul-	school-	8ryy	.	4%3ryy	.	8c'L	f	4%3ryy	.	2.ryy	4ryy	4%3ryy	.	4ryy	.
.	.	.	.	.	.	8ryy	4ryy	8ryy	4ryy	.	.	.	.	.	8ryy	4ryy	.	.	8E-X'	.	.	.	.	.	.	.	.	.
.	.	.	.	.	.	.	.	.	.	6E-	.	-tor-	-mei-	-mas-	.	.	.	.	.	.	.	.	.	.	.	.	.	.
.	.	.	.	.	.	4ryy	4ryy	4ryy	4ryy	.	.	.	.	.	8ryy	.	.	.	\8AA-X'	.	.	.	.	.	.	.	4ryy	.
.	.	.	.	.	.	.	.	.	.	6E-)	.	-ku,	-ster,	-ter,	.	.	.	.	.	.	.	.	.	.	.	.	.	.
.	.	.	.	8ryy	.	.	.	.	.	.	.	.	.	.	8ryy	.	.	.	8E-'J	.	.	.	.	.	.	.	.	.
.	.	.	.	4ryy	.	8ryy	.	8ryy	.	4r	.	.	.	.	8ryy	.	.	.	8c'L	.	.	.	.	.	.	.	4ryy	.
.	.	.	.	.	.	8ryy	4ryy	8ryy	4ryy	.	.	.	.	.	8ryy	.	.	.	8E-'	.	.	.	.	.	.	.	.	.
=83	=83	=83	=83	=83	=83	=83	=83	=83	=83	=83	=83	=83	=83	=83	=83	=83	=83	=83	=83	=83	=83	=83	=83	=83	=83	=83	=83	=83
8ryy	.	8ryy	.	8ryy	.	8ryy	4ryy	8ryy	4ryy	4%3r	.	.	.	.	8ryy	.	4%3ryy	.	\8AA-X'	.	4%3ryy	.	2.ryy	.	4%3ryy	.	4%3ryy	.
8ryy	4ryy	8ryy	4ryy	8ryy	.	8ryy	.	8ryy	.	.	.	.	.	.	8ryy	.	.	.	8E-X'J	.	.	.	.	.	.	.	.	.
4ryy	4ryy	4ryy	4ryy	4.ryy	.	4ryy	4ryy	4ryy	4ryy	.	.	.	.	.	8ryy	.	.	.	8c'L	.	.	.	.	.	.	.	.	.
.	.	.	.	.	.	.	.	.	.	.	.	.	.	.	8ryy	.	.	.	8E-'	.	.	.	.	.	.	.	.	.
8ryy	.	8ryy	.	.	.	4ryy	.	4ryy	.	.	.	.	.	.	8ryy	.	.	.	\8AA-'	.	.	.	.	.	.	.	.	.
8ryy	4ryy	8ryy	4ryy	8ryy	.	.	.	.	.	.	.	.	.	.	8ryy	.	.	.	8E-'J	.	.	.	.	.	.	.	.	.
=84	=84	=84	=84	=84	=84	=84	=84	=84	=84	=84	=84	=84	=84	=84	=84	=84	=84	=84	=84	=84	=84	=84	=84	=84	=84	=84	=84	=84
8ryy	4ryy	8ryy	4ryy	4.ryy	4ryy	8ryy	.	8ryy	.	4B-X	.	až	wenn	next	8ryy	.	4%3ryy	.	8c'L	p	4%3ryy	.	2.ryy	4ryy	4%3ryy	.	4%3ryy	.
8ryy	.	8ryy	.	.	.	8ryy	4ryy	8ryy	4ryy	.	.	.	.	.	8ryy	4ryy	.	.	8E-X'	.	.	.	.	.	.	.	.	.
4ryy	.	4ryy	.	.	.	4ryy	4ryy	4ryy	4ryy	4B-	.	pu-	du	time	8ryy	.	.	.	\8AA-X'	.	.	.	.	.	.	.	.	.
.	.	.	.	8ryy	.	.	.	.	.	.	.	.	.	.	8ryy	.	.	.	8E-'J	.	.	.	.	.	.	.	.	.
4ryy	4ryy	4ryy	4ryy	4ryy	4ryy	8ryy	.	8ryy	.	4B-	.	-deš	den	you	8ryy	.	.	.	8c'L	.	.	.	.	.	.	.	.	.
.	.	.	.	.	.	8ryy	4ryy	8ryy	4ryy	.	.	.	.	.	8ryy	.	.	.	8E-'	.	.	.	.	.	.	.	.	.
=9	=9	=9	=9	=9	=9	=9	=9	=9	=9	=9	=9	=9	=9	=9	=9	=9	=9	=9	=9	=9	=9	=9	=9	=9	=9	=9	=9	=9
8ryy	.	8ryy	.	8ryy	.	8ryy	4ryy	8ryy	4ryy	16%3B-X	.	na	Son-	go	8ryy	.	4%3ryy	.	\8AA-X'	.	4%3ryy	.	2.ryy	.	4%3ryy	.	4%3ryy	.
8ryy	.	8ryy	.	8ryy	.	8ryy	.	8ryy	.	.	.	.	.	.	8ryy	.	.	.	8E-X'J	.	.	.	.	.	.	.	.	.
.	.	.	.	.	.	.	.	.	.	16%3B-	.	nám-	-nen-	a-	.	.	.	.	.	.	.	.	.	.	.	.	.	.
4ryy	.	4ryy	.	4.ryy	.	4ryy	4ryy	4ryy	4ryy	.	.	.	.	.	8ryy	.	.	.	8c'L	.	.	.	.	.	.	.	.	.
.	.	.	.	.	.	.	.	.	.	16%3B-	.	-lu-	-blu-	-court-	8ryy	.	.	.	8E-'	.	.	.	.	.	.	.	.	.
8ryy	.	8ryy	.	.	.	4ryy	.	4ryy	.	.	.	.	.	.	8ryy	.	.	.	\8AA-'	.	.	.	.	.	.	.	.	.
.	.	.	.	.	.	.	.	.	.	16%3B-	.	-vy	-men	-ing	.	.	.	.	.	.	.	.	.	.	.	.	.	.
8ryy	.	8ryy	.	8ryy	.	.	.	.	.	.	.	.	.	.	8ryy	.	.	.	8E-'J	.	.	.	.	.	.	.	.	.
=||	=||	=||	=||	=||	=||	=||	=||	=||	=||	=||	=||	=||	=||	=||	=||	=||	=||	=||	=||	=||	=||	=||	=||	=||	=||	=||	=||	=||
*-	*-	*-	*-	*-	*-	*-	*-	*-	*-	*-	*-	*-	*-	*-	*-	*-	*-	*-	*-	*-	*-	*-	*-	*-	*-	*-	*-	*-
!!!system-decoration: [([({(s1,s2)})][({(s3,s4)})][({(s5,s6)})])][(s7)](s8)[(s9,s10,s11,s12,s13)]
!!!RDF**kern: i = editorial accidental
!!!RDF**kern: j = editorial accidental, bracket
!!!RDF**kern: Z = editorial accidental, parentheses
!!!RDF**kern: N = cue size
!!!EED: Daniel Wright
!!!EEV: 2021/12/03
